X: 31412
T: Paddy Ryan's Dream
R: reel
M: 4/4
K: Bminor
b~f3 dBcA|F~c3 ABcA|~B3c dcBd|cBAc Bcdc|
B~F3 dBcA|F~c3 AB(3cBA|~B3c dcBd|cBAc ~B3B:|
f~b3 bfdB|Aa^gb afee|f~b3 bfde|{e}~f2ef dBcA|
Bz~b3 fdB|Aa^gb afee|(3Bcdce dfeg|fedc ~B3B:|

